X: 2055
T: Âb ü Tâb ile Bu Şeb
C: III. Selim (İlhâmî)
O: Turkey
F: http://compmusic.upf.edu/node/140
N: suzidilara--yuruksemai--yuruksemai--ab_u_tab--iii_selim
N: makam= suzidilara
N: form= yuruksemai
N: usul= yuruksemai = 6/8
M: 6/8
L: 1/16
K: C ^9/8f   
Q: 1/4=84
%%MIDI tuningsystem comma53
G4G2^F2 E4F4 G8  | D8 E4^F4 G8  | z4G4 A4B4 c6B2  | \
w:  Ah  *  *  âb  ü  tâb   |  i le  bu  şeb   |  hâ ne me  câ  | 
c4d4 e4d2c2 B8  | 
w:  nân   | 
B4c4 d4c2B2 A8  | G4A4 B4c4 d4d2c2  | \
w:  nân   |  nân   | 
B2c2B2A2 G4A4 A2c2B2A2  | 
w:  *  *  *  *  ge li yor   | 
G2^F2G2B2 A2G2F2E2 D6z2  | G4G2^F2 E4F4 G8  | \
w:  vay    |  Ah  *  *  âb  ü  tâb   | 
D8 E4^F4 G8  | z4G4 A4B4 c6B2  | 
w:  i le  bu  şeb   |  hâ ne me  câ  | 
c4d4 e4d2c2 B8  | B4c4 d4c2B2 A8  | G4A4 B4c4 d4d2c2  | \
w:  nân   |  nân   |  nân   | 
B2c2B2A2 G4A4 A2c2B2A2  | 
w:  *  *  *  *  ge li yor   | 
G12G^FEF G8  | A6G2 ^F4G4 A6z2  | _7/8B8 B2A2G4 A2B^cB2A2  | 
w:  vay    |  Ah  *  el  a man   |  ey  yü *  zü  mâ  | 
A12_7/8B4 d2^c2B2A2  | A2G2^F4 G4A4 _7/8B6A2  | \
w:  hım    |  *  *  Söy le  ne dir   | 
d4d2^c2 _7/8B2A2G4 A2BcB2A2  | 
w:  be nim  *  *  *  gü nâ  | 
A12_7/8B2^c2 d8  | d4^c4 _7/8B4A4 A4e2=f2  | \
w:  hım   SAZ  |  E riş *  miş tir   | 
e2d2d2^c2 _7/8B2A2G4 A2BcB2A2  | 
w:  gök *  *  *  le *  re  â  | 
A8 _7/8B4^c4 d8  | d4^c4 _7/8B4A4 A4e2=f2  | \
w:  hım   SAZ  |  E riş *  miş tir   | 
e2d2d2^c2 _7/8B2A2G4 A2BcB2A2  | 
w:  gök *  *  *  le *  re  â  | 
A8 A2G2^F2G2 A4_7/8B4  | _7/8B8 B2A2G4 A2B^cB2A2  | \
w:  hım   SAZ  |  Fer yâd  *  e de  | 
A4G4 =F4E2F2 D6z2  | 
w:  rim   | 
_7/8B8 B2A2G4 A2B^cB2A2  | A8 A2G2^F2G2 A4_7/8B4  | \
w:  şek vâ  *  e de  |  rim   SAZ  | 
_7/8B8 B2A2G4 A2B^cB2A2  | 
w:  Fer yâd  *  e de  | 
A4G4 =F4E2F2 D6z2  | A4_7/8B6A2G4 A2B^cB2A2  | \
w:  rim   |  sen den  *  ba lâ  | 
A12c2d2 e8  | d4e8e3d c6z2  | 
w:  ya   SAZ  |  A man   | 
c4d8d3c B6z2  | B4c8c3B A6z2  | G4A4 B4c4 d4d3c  | \
w:  a *  man   |  a *  man   |  ah   | 
B2c2B2A2 G4A4 A2c2B2A2  | 
w:  *  *  *  *  ge li yor   | 
G8 g3fe2f2 g8  | g6^f2 e4^9/8f4 g8  | \
w:  vay   SAZ  |  Ah  *  *  per çe  | 
g8 a4g2^f2 f2^e2f4  | z4^f4 f4f2e2 f8  | 
w:  mi  zi ver_ i  *  dûş   |  ü  ni geh_ *  i   | 
^f4g4 f4e4 d8  | e4d4 ^c4d4 e8  | ^f4e4 f4g4 a4a2g2  | \
w:  â   |  â   |  â  | 
g2a2g2^f2 g4a4 a2c'2b2a2  | 
w:  *  *  *  *  fe ti  hûş   | 
a3g^f2g2 f2g2a3g g8  | g6^f2 e4^9/8f4 g8  | \
w:  vay    |  Ah  *  *  per çe  | 
g8 a4g2^f2 f2^e2f4  | 
w:  mi  zi ver_ i  *  dûş   | 
z4^f4 f4f2e2 f8  | ^f4g4 f4e4 d8  | e4d4 ^c4d4 e8  | \
w:  ü  ni geh_ *  i   |  â   |  â   | 
^f4e4 f4g4 a4a2g2  | 
w:  â  | 
g2a2g2^f2 a4g2f2 g3fe4  | d4e8c2d2 e8  | \
w:  *  *  *  *  fe ti  *  hûş   |  vay   *  SAZ  | 
e6d2 c4d4 e6z2  | 
w:  Âh  *  el  a man   | 
e8 e2=f2e2d2 d8  | d4e4 d4c4 B2c2B2A2  | \
w:  ey  yü *  zü  *  mâ  |  hım    | 
A2G2^F4 G4A4 _7/8B6A2  | 
w:  *  *  Söy le  ne dir   | 
d4d2^c2 _7/8B2A2G4 A2BcB2A2  | A12_7/8B2^c2 d8  | \
w:  be nim  *  *  *  gü nâ  |  hım   SAZ  | 
d4^c4 _7/8B4A4 A4e2=f2  | 
w:  E riş *  miş tir   | 
e2d2d2^c2 _7/8B2A2G4 A2BcB2A2  | A8 _7/8B4^c4 d8  | \
w:  gök *  *  *  le *  re  â  |  hım   SAZ  | 
d4^c4 _7/8B4A4 A4e2=f2  | 
w:  E riş *  miş tir   | 
e2d2d2^c2 _7/8B2A2G4 A2BcB2A2  | A8 A2G2^F2G2 A4_7/8B4  | \
w:  gök *  *  *  le *  re  â  |  hım   SAZ  | 
_7/8B8 B2A2G4 A2B^cB2A2  | 
w:  Fer yâd  *  e de  | 
A4G4 =F4E2F2 D6z2  | _7/8B8 B2A2G4 A2B^cB2A2  | \
w:  rim   |  şek vâ  *  e de  | 
A8 A2G2^F2G2 A4_7/8B4  | 
w:  rim   SAZ  | 
_7/8B8 B2A2G4 A2B^cB2A2  | A4G4 =F4E2F2 D6z2  | \
w:  Fer yâd  *  e de  |  rim   | 
A4_7/8B6A2G4 A2B^cB2A2  | 
w:  sen den  *  ba lâ  | 
A12c2d2 e8  | d4e8e3d c6z2  | c4d8d3c B6z2  | \
w:  ya   SAZ  |  A man   |  a *  man   | 
B4c8c3B A6z2  | 
w:  a *  man   | 
G4A4 B4c4 d4d3c  | B2c2B2A2 G4A4 A2c2B2A2  | \
w:  ah   |  *  *  *  *  ge li yor   | 
G8 |
w:  vay    | 


